X: 8
T: La Varsouvienne [4]
M:3/4
L:1/8
S:Viola "Mom" Ruth - Pioneer Western Folk Tunes (1948)
Z:AK/Fiddler's Companion
K:D
A>d|f>g f2 A>d|f>g f2 A>d|ff g2f2|e4 A>c|e>f e2 A>c|
e>f e2 A>c|ee f2e2|d3 (ABc)||d2c2B2|A4 e>f|
g2f2e2|a3 (ABc)|d2c2B2|A4 (ef)|g2B2c2|d4||

%%sep 1 1 500
